svgs/owlgram.svg

<svg width="24" height="24" viewBox="0 0 24 24" fill="none" xmlns="http://www.w3.org/2000/svg">
<path fill-rule="evenodd" clip-rule="evenodd" d="M9.06725 2.3703C9.98283 3.03356 11.113 4.47153 12.558 6.81205C13.7947 8.81498 14.0744 9.36074 14.3154 10.2415C14.5853 11.2278 14.6968 12.9527 14.5347 13.6321C14.2947 14.6377 13.7805 15.3009 12.6204 16.1006C12.4262 16.2344 12.426 16.2463 12.6171 16.4902C12.7441 16.6522 13.0123 16.7701 13.3711 16.8216C14.8793 17.0382 15.71 17.5902 15.9296 18.522C16.0602 19.0757 16.0037 19.76 15.8051 20.0333C15.7357 20.1288 15.5375 20.2069 15.3647 20.2069C14.984 20.2069 14.402 19.8786 13.3572 19.0742C12.9248 18.7413 12.4915 18.4862 12.3946 18.5076C12.2961 18.5293 12.1759 18.7367 12.1227 18.9769C12.0701 19.2136 11.9568 19.4903 11.8709 19.5918C11.7849 19.6933 11.4612 19.8327 11.1517 19.9016C10.6686 20.0091 10.5843 20.07 10.5566 20.3322C10.5389 20.5001 10.5027 20.7109 10.4762 20.8004C10.4375 20.9308 10.3956 20.9265 10.266 20.7785C10.1769 20.6768 10.1041 20.5343 10.1041 20.4617C10.1041 20.1886 9.60292 20.3998 9.16161 20.8589C8.91494 21.1155 8.8125 20.9932 9.04851 20.7237C9.12035 20.6416 9.12994 20.576 9.07005 20.576C9.01081 20.576 8.90417 20.6425 8.83308 20.7237C8.73258 20.8384 8.70382 20.8372 8.70382 20.7177C8.70382 20.5455 9.2201 19.9609 9.37219 19.9609C9.42627 19.9609 9.44156 19.9073 9.40612 19.8419C9.33772 19.7154 8.77588 19.799 8.46146 19.9825C8.34125 20.0526 8.27295 20.0464 8.27295 19.9652C8.27295 19.8952 8.32143 19.8378 8.38067 19.8378C8.43991 19.8378 8.48839 19.7805 8.48839 19.7105C8.48839 19.6279 8.40297 19.6343 8.24603 19.7283C8.00485 19.8729 8.00463 19.8724 8.20929 19.6091C8.46178 19.2843 9.05874 19.0897 9.71559 19.1181C10.0623 19.1331 10.2749 19.0727 10.4264 18.916C10.5454 18.7931 10.6427 18.6283 10.6427 18.55C10.6427 18.4716 10.5085 18.2606 10.3443 18.081L10.046 17.7546L9.3653 17.9964C8.55 18.2863 8.25497 18.2977 7.84522 18.0557C7.62149 17.9236 7.52422 17.9127 7.49406 18.016C7.41155 18.2987 7.22994 17.9914 7.09239 17.336C6.89753 16.4083 7.01397 15.6326 7.41263 15.2028C7.58444 15.0177 8.22394 14.5868 8.83372 14.2455L9.94255 13.6248L9.92779 12.9798C9.91519 12.4275 9.86478 12.2832 9.57772 11.9768C9.32458 11.7068 9.2424 11.5124 9.2424 11.1837C9.2424 10.9441 9.28408 10.7187 9.33492 10.6828C9.38587 10.6469 9.28893 10.3036 9.11949 9.92003C8.75897 9.10373 8.71577 8.52463 9.00887 8.43715C9.19145 8.38253 9.1713 8.24953 8.7399 6.66294C8.06431 4.17823 7.86062 2.64466 8.1326 2.09078C8.22394 1.905 8.56616 2.00736 9.06725 2.3703Z" fill="black"/>
</svg>

<svg xmlns="http://www.w3.org/2000/svg" width="24" height="24" fill="none" viewBox="0 0 24 24"><path fill="#000" fill-rule="evenodd" d="M9.067 2.37c.916.664 2.046 2.102 3.491 4.442 1.237 2.003 1.516 2.549 1.757 3.43.27.986.382 2.71.22 3.39-.24 1.006-.755 1.669-1.915 2.469-.194.133-.194.145-.003.39.127.161.395.28.754.33 1.508.217 2.339.77 2.559 1.701.13.554.074 1.238-.125 1.511-.07.096-.268.174-.44.174-.381 0-.963-.328-2.008-1.133-.432-.333-.865-.588-.962-.566-.099.021-.22.229-.272.469-.053.237-.166.513-.252.615-.086.101-.41.24-.72.31-.482.107-.567.168-.594.43a3.384 3.384 0 0 1-.08.468c-.04.13-.081.127-.211-.021-.09-.102-.162-.245-.162-.317 0-.273-.501-.062-.942.397-.247.256-.35.134-.113-.135.071-.082.08-.148.021-.148-.06 0-.166.066-.237.148-.1.114-.13.113-.13-.006 0-.172.517-.757.67-.757.053 0 .069-.054.033-.12-.068-.126-.63-.042-.945.142-.12.07-.188.063-.188-.018 0-.07.048-.127.108-.127.059 0 .107-.058.107-.128 0-.082-.085-.076-.242.018-.241.145-.241.144-.037-.119.253-.325.85-.52 1.507-.49.346.014.559-.046.71-.203.12-.123.217-.288.217-.366 0-.078-.135-.29-.299-.469l-.298-.326-.68.241c-.816.29-1.111.302-1.52.06-.225-.132-.322-.143-.352-.04-.082.283-.264-.025-.402-.68-.194-.928-.078-1.703.32-2.133.172-.185.812-.616 1.422-.957l1.109-.621-.015-.645c-.013-.553-.063-.697-.35-1.003-.253-.27-.336-.465-.336-.793 0-.24.042-.465.093-.501.05-.036-.046-.38-.216-.763-.36-.816-.403-1.395-.11-1.483.182-.054.162-.187-.27-1.774-.675-2.485-.878-4.018-.606-4.572.09-.186.433-.084.934.28" clip-rule="evenodd"/></svg>
